X:371
T:John Ryan's Polka
M:4/4
L:1/8
K:D
"D"d2 d2 "G"BcdB|"D"A2 F2 A2 F2|d2 d2 "G"BcdB|"D"A2 F2 "A"E2 D2|
"D"d2 d2 "G"BcdB|"D"A2 F2 A2 de|f2 d2 "A"e2 c2|1 "D"d4 d4:|2 "D"d4 d3 e
|:"D"f2 d2 d2 ef|"G"g2 f2 e2 "D"de|f2 d2 A2 d2|f2 df "A"a2 {b}ag|
"D"f2 d2 d2 ef|"G"g2 {fg}f2 e2 de|"D"f2 d2 "A"e2 c2|1 "D"d4 d3 e:|2 "D"d4|]
